epam-assets/icon-sources/18/communication-mail.svg

<svg width="18" height="18" viewBox="0 0 18 18" fill="none" xmlns="http://www.w3.org/2000/svg">
<g id="18/communication-mail">
<path id="icon" d="M3 15C2.5875 15 2.2345 14.8533 1.941 14.5597C1.647 14.2657 1.5 13.9125 1.5 13.5V4.5C1.5 4.0875 1.647 3.7345 1.941 3.441C2.2345 3.147 2.5875 3 3 3H15C15.4125 3 15.7657 3.147 16.0597 3.441C16.3533 3.7345 16.5 4.0875 16.5 4.5V13.5C16.5 13.9125 16.3533 14.2657 16.0597 14.5597C15.7657 14.8533 15.4125 15 15 15H3ZM9 9.75L15 6V4.5L9 8.25L3 4.5V6L9 9.75Z" fill="#6C6F80"/>
</g>
</svg>

<svg xmlns="http://www.w3.org/2000/svg" width="18" height="18" fill="none" viewBox="0 0 18 18">
  <path fill="#6C6F80" d="M3 15c-.413 0-.765-.147-1.059-.44A1.445 1.445 0 0 1 1.5 13.5v-9c0-.412.147-.765.441-1.059A1.443 1.443 0 0 1 3 3h12c.412 0 .766.147 1.06.441.293.294.44.647.44 1.059v9c0 .412-.147.766-.44 1.06-.294.293-.647.44-1.06.44H3Zm6-5.25L15 6V4.5L9 8.25 3 4.5V6l6 3.75Z"/>
</svg>
